X: 26701
T: Mike Flanagan's
R: reel
M: 4/4
K: Ddorian
ADDE DDdc|ADED ECEG|ADDE FGAc|dcAG ECEG|
ADDE DDdc|ADED ECEG|ADDE FGAc|dcAG E2 EG||
F2 cF dFcF|F2 cA GECE|F2 cF dFcF|decA GECE|
F2 cF dFcF|F2 cA GECE|D2EG ABcA|dcAG E2EG||

